!!!!SEGMENT: pl-kk--kk-i-7--103_gorczycki-grzegorz-gerwazy--alto-ex-olympi-vertice.krn
!!!cenid: 16xx:942
!!!COM: Gorczycki, Grzegorz Gerwazy
!!!COM-rism: pe30009207
!!!CDT: ~1666-1734/04/30
!!!CNT: Polish
!!!OTL: Alto ex Olympi vertice
!!!PDT:
!!!AGN: Sacred
!!!SMS-siglum: PL-Kk
!!!SMS-shelfmark: Kk.I.7
!!!NIFC-rismID: 300258180
!!!URL-scan: http://repozytorium.nifc.pl/skany/pl-kk-nut--i-7
!!!ONB-nifc: UWAGA: C (skan 0078, s.149 ), A (0156, s.133), T(0243, s.149), B(0330, s.145). Następny utwór: Stella caeli exstirpavit
!!!SMS-variant:
!!!SMS-altvar:
**kern	**text	**text	**text	**text	**kern	**text	**text	**text	**text	**dynam	**kern	**text	**text	**text	**text	**dynam	**kern	**text	**text	**text	**text	**dynam
*part4	*part4	*part4	*part4	*part4	*part3	*part3	*part3	*part3	*part3	*part3	*part2	*part2	*part2	*part2	*part2	*part2	*part1	*part1	*part1	*part1	*part1	*part1
*staff4	*staff4	*staff4	*staff4	*staff4	*staff3	*staff3	*staff3	*staff3	*staff3	*	*staff2	*staff2	*staff2	*staff2	*staff2	*	*staff1	*staff1	*staff1	*staff1	*staff1	*
*group1	*	*	*	*	*group1	*	*	*	*	*	*group1	*	*	*	*	*	*group1	*	*	*	*	*
*	*verse1	*verse2	*verse3	*verse4	*	*verse1	*verse2	*verse3	*verse4	*	*	*verse1	*verse2	*verse3	*verse4	*	*	*verse1	*verse2	*verse3	*verse4	*
*I"BASSVS.	*	*	*	*	*I"TENOR.	*	*	*	*	*	*I"ALTVS.	*	*	*	*	*	*I"CANTVS.	*	*	*	*	*
*I'B	*	*	*	*	*I'T	*	*	*	*	*	*I'A	*	*	*	*	*	*I'S	*	*	*	*	*
*clefF4	*	*	*	*	*clefC4	*	*	*	*	*	*clefC3	*	*	*	*	*	*clefC1	*	*	*	*	*
*k[]	*	*	*	*	*k[]	*	*	*	*	*	*k[]	*	*	*	*	*	*k[]	*	*	*	*	*
*M3/2	*	*	*	*	*M3/2	*	*	*	*	*	*M3/2	*	*	*	*	*	*M3/2	*	*	*	*	*
=1	=1	=1	=1	=1	=1	=1	=1	=1	=1	=1	=1	=1	=1	=1	=1	=1	=1	=1	=1	=1	=1	=1
*2\right	*	*	*	*	*2\right	*	*	*	*	*	*2\right	*	*	*	*	*	*2\right	*	*	*	*	*
!LO:TX:t=P:problem:przed kluczem inicjał II A	!	!	!	!	!LO:TX:t=P:problem:przed kluczem inicjał II A	!	!	!	!	!	!LO:TX:t=P:problem:przed kluczem inicjał II A	!	!	!	!	!	!LO:TX:t=P:problem:przed kluczem inicjał II A	!	!	!	!	!
2c\	1 Al-	2. Haec	3. Hic	4. De-	2c\	1. Al-	2. Haec	3 Hic	4 De-	.	2g\	1. Al-	2 Haec	3 Hic	4. De-	.	2ee\	1. Al-	2 Haec	3. Hic	4 De-	.
2c\	-to	Tem-	im-	-cus	2c\	-to	tem-	im-	-cus	.	2e\	-to	tem-	im-	-cus	.	2gg\	-to	tem-	im-	-cus	.
2G\	ex	-pla	-pe-	Pa-	2B\	ex	-pla	-pe-	pa-	.	2d\	ex	-pla	-pe-	Pa-	.	2gg\	ex	-pla	-pe-	Pa-	.
=2	=2	=2	=2	=2	=2	=2	=2	=2	=2	=2	=2	=2	=2	=2	=2	=2	=2	=2	=2	=2	=2	=2
2A\	O-	Rex	-trent	-ren-	2c\	O-	Rex	-trent	-ren-	.	2c\	O-	Rex	-trent	-ren-	.	2ff\	O-	Rex	-trent,	-ren-	.
2Bn\	-lym-	.	.	.	2d\	-lym-	.	.	.	.	2g\	-lym-	.	.	.	.	(4ff\	-lym-	.	.	.	.
.	.	.	.	.	.	.	.	.	.	.	.	.	.	.	.	.	4gg\)	.	.	.	.	.
2B\	-pi	cae-	Fi-	-ti	2d\	-pi	cae-	Fi-	-ti	.	2g\	-pi	cae-	Fi-	-ti	.	4ff\	-pi	cae-	Fi-	-ti	.
.	.	.	.	.	.	.	.	.	.	.	.	.	.	.	.	.	4gg\	.	.	.	.	.
=3	=3	=3	=3	=3	=3	=3	=3	=3	=3	=3	=3	=3	=3	=3	=3	=3	=3	=3	=3	=3	=3	=3
2.c\	Ver-	-le-	-de-	de-	2.c\	ver-	-le-	-de-	de-	.	2.g\	Ver-	-le-	-de-	de-	.	2.ff\	Ver-	-le-	-de-	de-	.
4C/	-ti-	-sti-	-li-	-bi-	4c\	-ti-	-sti-	-li-	-bi-	.	4g\	-ti-	-sti-	-li-	-bi-	.	4ff\	-ti-	-sti-	-li-	-bi-	.
2C,</	-ce	-um	-um	-tum,	2c\	-ce,	-um	-um	-tum	.	2g\	-ce	-um,	-um	-tum	.	2ee,<\	-ce,	-um,	-um	-tum,	.
=4	=4	=4	=4	=4	=4	=4	=4	=4	=4	=4	=4	=4	=4	=4	=4	=4	=4	=4	=4	=4	=4	=4
2G\	Sum-	im-	Vo-	sit	2B\	Su(m)-	im-	Vo-	sit	.	2g\	sum-	im-	Vo-	sit	.	2dd\	Sum-	im-	vo-	sit	.
2G\	-mi	-ple	-ces	us-	2B\	-mi	-ple	-ces	us-	.	2g\	-mi	-ple	-ces,	us-	.	2dd\	-mi	-ple	-ces	us-	.
2D\	Pa-	be-	pre-	-que	2A/	Pa-	be-	pre-	-que	.	2f#X\	Pa-	be-	pre-	-que	.	[<2dd\	Pa-	be-	pre-	-que	.
=5	=5	=5	=5	=5	=5	=5	=5	=5	=5	=5	=5	=5	=5	=5	=5	=5	=5	=5	=5	=5	=5	=5
!	!	!	!	!	!LO:TX:t=P:problem:skreślona nuta	!	!	!	!	!	!	!	!	!	!	!	!	!	!	!	!	!
1E	-ren-	-ni-	-ces-	qua-	1G	-ren-	-ni-	-ces-	qua-	.	1g	-ren-	-ni-	-ces-	qua-	.	2dd\]	.	.	.	.	.
.	.	.	.	.	.	.	.	.	.	.	.	.	.	.	.	.	2ccn\	-ren-	-ni-	-ces-	qua-	.
2F#X\	-tis	-gno	-que	-que	2A/	-tis	-gno	-que	-que	.	2d\	-tis	-gno	-que	-que	.	2cc\	-tis	-gno	-que	-que	.
=6	=6	=6	=6	=6	=6	=6	=6	=6	=6	=6	=6-	=6-	=6-	=6-	=6-	=6-	=6	=6	=6	=6	=6	=6
2G\	Fi-	Lu-	Sup-	al-	(2B\	Fi-	Lu-	sup-	al-	.	1g	Fi-	Lu-	sup-	altiſ-	.	(2b\	Fi-	Lu-	sup-	altiſ-	.
2C/	.	.	.	tiſ-	2e\)	.	.	.	-tiſ-	.	.	.	.	.	.	.	2.a\)	.	.	.	.	.
2D/	-li-	-mi-	-pli-	-si-	2d\	-li-	-mi-	-pli-	-si-	.	2f#X\	-li-	-mi-	-pli-	-si-	.	.	.	.	.	.	.
.	.	.	.	.	.	.	.	.	.	.	.	.	.	.	.	.	4a\	-li-	-mi-	-pli-	-si-	.
=7-	=7-	=7-	=7-	=7-	=7-	=7-	=7-	=7-	=7-	=7-	=7-	=7-	=7-	=7-	=7-	=7-	=7-	=7-	=7-	=7-	=7-	=7-
1.GG,<	-us,	-ne;	-cûm,	-mo,	1.d,<	-us,	-ne.	-cum	-mo	.	1.g	-(us),	-ne;	-cum	-mo.	.	1.b,<	-us,	-ne,	-cum	-mo.	.
=8	=8	=8	=8	=8	=8	=8	=8	=8	=8	=8	=8	=8	=8	=8	=8	=8	=8	=8	=8	=8	=8	=8
2E\	Ceû	hûc	Do-	Na-	2G#X/	Ceû	huc	do-	Na-	.	2g#X\	Ceu	huc	Do-	Na-	.	2b\	Ceu	huc	Do-	Na-	.
2E\	mon-	o	-mûs	-to-	2G#/	mon-	o	-mûs	-to-	.	2g#\	mon-	o	-mûs	-to-	.	2b\	mon-	o	-mûs	-to-	.
2E\	-te	ro-	be-	-que	2G#/	-te	ro-	be-	-que	.	2e\	-te	ro-	be-	-que	.	2b\	-te	ro-	be-	-que	.
=9	=9	=9	=9	=9	=9-	=9-	=9-	=9-	=9-	=9-	=9	=9	=9	=9	=9	=9	=9	=9	=9	=9	=9	=9
1A	de-	-ga-	-a-	Pa-	1A	de-	-ga-	-a-	Pa-	.	1e	de-	-ga-	-a-	Pa-	.	1ccn	de-	-ga-	-a-	Pa-	.
2Gn\	-se-	-tus	-tae	-tris	2B\	-ſe-	-tus	-tae	-tris	.	2gn\	-se-	-t(us)	-tae	-tris	.	2ee\	-se-	-t(us)	-tae	-tris	.
=10	=10	=10	=10	=10	=10	=10	=10	=10	=10	=10	=10	=10	=10	=10	=10	=10	=10	=10	=10	=10	=10	=10
1F	-ctus	ad-	mu-	U-	2c\	-ct(us)	ad-	mu-	U-	.	2a\	-ct(us)	ad-	mu-	U-	.	1ee	-ct(us)	ad-	mu-	U-	.
.	.	.	.	.	1A	la-	-ve-	-ne-	-ni-	.	(2f\	la-	-ve-	-ne-	-ni-	.	.	.	.	.	.	.
2F\	la-	-ve-	-ne-	-ni-	.	.	.	.	.	.	2a\)	.	.	.	.	.	2dd#X\	la-	-ve-	-ne-	-ni-	.
=11	=11	=11	=11	=11	=11	=11	=11	=11	=11	=11	=11-	=11-	=11-	=11-	=11-	=11-	=11	=11	=11	=11	=11	=11
1E,<	-pis,	-ni,	-ra	-co,	1B,<	-pis,	-ni,	-ra,	-co	.	1g#X,<	-pis,	-ni,	-ra,	-co	.	1ee,<	-pis,	-ni,	-ra,	-co,	.
2A\	ter-	ple-	par-	et	2c\	ter-	ple-	par-	et	.	2e\	ter-	ple-	par-	et	.	2ee\	ter-	ple-	par-	et	.
!LO:LB:g=original	!	!	!	!	!	!	!	!	!	!	!	!	!	!	!	!	!	!	!	!	!	!
=12	=12	=12	=12	=12	=12	=12	=12	=12	=12	=12	=12	=12	=12	=12	=12	=12	=12	=12	=12	=12	=12	=12
1D	-ras	-bis-	-tis-	in-	1c	-ras	-bis-	-tis-	in-	.	1fn	-ras	-bis-	-tis-	in-	.	2.dd\	-ras	-bis-	-tis-	in-	.
.	.	.	.	.	.	.	.	.	.	.	.	.	.	.	.	.	4cc\	.	.	.	.	.
2G\	in	-que	-que	-cly-	2d\	in	-q(ue)	-que	-cly-	.	2g\	in	-que	-que	-cly-	.	(4b\	in	-q(ue)	-que	-cly-	.
.	.	.	.	.	.	.	.	.	.	.	.	.	.	.	.	.	4a\)	.	.	.	.	.
=13	=13	=13	=13	=13	=13-	=13-	=13-	=13-	=13-	=13-	=13	=13	=13	=13	=13	=13	=13	=13	=13	=13	=13	=13
(2E\	i-	Vo-	do-	-to	(2e\	i-	Vo-	do-	-to	.	(2g\	i-	Vo-	do-	-to	.	2g\	i-	vo-	do-	-to	.
2D/)	.	.	.	.	2F/)	.	.	.	.	.	2d\)	.	.	.	.	.	2b\	-mas	-ta	-nis	Pa-	.
2C/	-mas	-ta	-nis	Pa-	2E/	-mas	-ta	-nis	Pa-	.	2g\	-mas	-ta	-nis	Pa-	.	(2cc\	de-	suſ-	gau-	-ra-	.
=14	=14	=14	=14	=14	=14	=14	=14	=14	=14	=14	=14	=14	=14	=14	=14	=14	=14	=14	=14	=14	=14	=14
2F\	de-	sus-	gau-	-ra-	(2A/	de-	suſ-	gau-	-ra-	.	(4f\	de-	Sus-	gau-	-ra-	.	2cc\	.	.	.	.	.
.	.	.	.	.	.	.	.	.	.	.	4e\)	.	.	.	.	.	.	.	.	.	.	.
2G\	.	.	.	.	2.G/)	.	.	.	.	.	2.d\	.	.	.	.	.	2cc\)	.	.	.	.	.
2GG/	-ci-	-ci-	-de-	-cly-	.	.	.	.	.	.	.	.	.	.	.	.	2b\	-ci[dens]	-ci[pe]	-de[ant]	-clito	.
.	.	.	.	.	4G/	-ci-	-ci-	-de-	-cli-	.	4d\	-ci-	-ci-	-de-	-cli-	.	.	.	.	.	.	.
=15-	=15-	=15-	=15-	=15-	=15-	=15-	=15-	=15-	=15-	=15-	=15-	=15-	=15-	=15-	=15-	=15-	=15	=15	=15	=15	=15	=15
!	!	!	!	!	!	!	!	!	!	!	!	!	!	!	!	!	!LO:TX:t=P:problem:uszkodzony papier	!	!	!	!	!
1.C,<	-dens,	-pe,	-ant	-to	1.G	-dens,	-pe	-ant	-to	.	1.e,<	-dens,	-pe	-ant,	-to	.	1.ryy	.	.	.	.	.
!	!	!	!	!	!LO:LB:g=original	!	!	!	!	!	!LO:LB:g=original	!	!	!	!	!	!LO:LB:g=original	!	!	!	!	!
=16	=16	=16	=16	=16	=16	=16	=16	=16	=16	=16	=16	=16	=16	=16	=16	=16	=16	=16	=16	=16	=16	=16
!	!	!	!	!	!	!	!	!	!	!LO:DY:a	!	!	!	!	!	!LO:DY:a:t=For.	!	!	!	!	!	!LO:DY:a
00.r	.	.	.	.	2A\	Do-	et	do-	Cuî	f	2e\	Do-	et	Do-	Cûi	f	2cc\	Do-	et	do-	Cûi	f
.	.	.	.	.	2c\	-mûs	nos-	-nec	laus	.	2c\	-m(us)	nos-	-nec	laus,	.	2a\	-mûs	noſ-	-nec	laus	.
.	.	.	.	.	2A\	Su-	-tra	so-	po-	.	2e\	su-	-tra	so-	po-	.	2cc\	su-	-tra	so-	po-	.
=17-	=17-	=17-	=17-	=17-	=17	=17	=17	=17	=17	=17	=17	=17	=17	=17	=17	=17	=17	=17	=17	=17	=17	=17
.	.	.	.	.	2e\	-per-	cor-	-lu-	-te-	.	2g\	-per-	cor-	-lu-	-te-	.	2cc\	-per-	cor-	-lu-	-te-	.
.	.	.	.	.	2f\	-nae	.	.	.	.	2c\	-nae	.	.	.	.	2a\	-nae	.	.	.	.
.	.	.	.	.	2d\	et	-da	-ti	-stas	.	2d\	et	-da	-ti	-stas,	.	2b\	et	-da	-ti	-stas,	.
=18-	=18-	=18-	=18-	=18-	=18	=18	=18	=18	=18	=18	=18	=18	=18	=18	=18	=18	=18	=18	=18	=18	=18	=18
.	.	.	.	.	2.c\	in-	ju-	cor-	glo-	.	2.e\	in-	ju-	cor-	glo-	.	2.cc\	in-	ju-	cor-	glo-	.
.	.	.	.	.	4c\	-fi-	-gi-	-po-	-ri-	.	4e\	-fi-	-gi-	-po-	-ri-	.	4g/	-fi-	-gi-	-po-	-ri-	.
.	.	.	.	.	2c\	-mae	-ter	-re	-a,	.	2e\	-mae,	-ter,	-re,	-a,	.	2g/	-mae,	-ter	-re,	-a,	.
=19-	=19-	=19-	=19-	=19-	=19	=19	=19	=19	=19	=19	=19	=19	=19	=19	=19	=19	=19	=19	=19	=19	=19	=19
.	.	.	.	.	2c\	u-	per-	se-	ae-	.	2e\	u-	per-	se-	ae-	.	2g/	u-	per-	se-	ae-	.
.	.	.	.	.	2B\	-trum-	-fun-	-des	-ter-	.	2d\	-trum-	-fun-	-des	-ter-	.	2g#X/	-trum-	-fun-	-des	-ter-	.
.	.	.	.	.	2A/	-que	-de	be-	-na	.	2c\	-que	-de	be-	-na	.	2a/	-q(ue)	-de	be-	-na	.
=20-	=20-	=20-	=20-	=20-	=20-	=20-	=20-	=20-	=20-	=20-	=20	=20	=20	=20	=20	=20	=20	=20	=20	=20	=20	=20
0.r	.	.	.	.	1G#X	jun-	cae-	-a-	sit	.	1e	jun-	cae-	-a-	sit	.	1b	jun-	cae-	-a-	sit	.
.	.	.	.	.	2A\	-xit	-li	-tas	per	.	2e\	-xit	-li	-tas	per	.	2a\	-xit	-li	-tas	per	.
=21-	=21-	=21-	=21-	=21-	=21	=21	=21	=21	=21	=21	=21	=21	=21	=21	=21	=21	=21	=21	=21	=21	=21	=21
.	.	.	.	.	2d\	an-	gra-	im-	sae-	.	2f\	An-	gra-	im-	sae-	.	1a	an-	gra-	im-	sae-	.
.	.	.	.	.	2e\	.	.	.	.	.	2.e\	.	.	.	.	.	.	.	.	.	.	.
.	.	.	.	.	2E/	-gu-	-ti-	-ple-	-cu-	.	.	.	.	.	.	.	2g#X/	-gu-	-ti-	-ple-	-cu-	.
.	.	.	.	.	.	.	.	.	.	.	4e\	-gu-	-ti-	-ple-	-cu-	.	.	.	.	.	.	.
=22-	=22-	=22-	=22-	=22-	=22-	=22-	=22-	=22-	=22-	=22-	=22-	=22-	=22-	=22-	=22-	=22-	=22-	=22-	=22-	=22-	=22-	=22-
1.r	.	.	.	.	1.A	-lum.	-â.	-ant.	-la.	.	1.e,<	-lum.	-â;	-ant.	-la.	.	1.a,<	-lum	-â.	-ant.	-la.	.
=23	=23	=23	=23	=23	=23	=23	=23	=23	=23	=23	=23	=23	=23	=23	=23	=23	=23	=23	=23	=23	=23	=23
2D\	Do-	et	Do-	Cuî	2d\	Do-	Et	do-	Cui	.	2f\	Do-	et	Do-	Cuî	.	2a\	Do-	Et	Do-	Cuî	.
2F\	-mûs	nos-	-nec	laus	2d\	-m(us)	nos-	-nec	laus	.	2d\	-m(us)	nos-	-nec	laus,	.	2a\	-m(us)	nos-	-nec	laus,	.
2D\	Su-	-tra	so-	po-	2A\	su-	-tra	so-	po-	.	2f\	Su-	-tra	so-	po-	.	2dd\	su-	-tra	so-	po-	.
=24	=24	=24	=24	=24	=24	=24	=24	=24	=24	=24	=24	=24	=24	=24	=24	=24	=24	=24	=24	=24	=24	=24
2A\	-per-	Cor-	-lu-	-te-	2A/	-per-	cor-	-lu-	-te-	.	2f\	-per-	cor-	-lu-	-te-	.	2ccn\	-per-	cor-	-lu-	-te-	.
2B-X,<\	-nae	.	.	.	2F/	-nae	.	.	.	.	2d\	-nae	.	.	.	.	4dd\	-nae	.	.	.	.
.	.	.	.	.	.	.	.	.	.	.	.	.	.	.	.	.	4cc\	.	.	.	.	.
2G\	et	-da	-ti	-stas	2G/	et	-da	-ti	-stas	.	2e\	et	-da	-ti	-stas,	.	2b-X\	et	-da	-ti	-ſtas,	.
=25	=25	=25	=25	=25	=25-	=25-	=25-	=25-	=25-	=25-	=25	=25	=25	=25	=25	=25	=25	=25	=25	=25	=25	=25
2.F\	in-	ju-	cor-	glo-	2.A/	in-	ju-	cor-	glo-	.	2.f\	in-	ju-	cor-	glo-	.	2.cc\	in-	ju-	Cor-	glo-	.
4F\	-fi-	-gi-	-po-	-ri-	4A/	-fi-	-gi-	-po-	-ri-	.	4f\	-fi-	-gi-	-po-	-ri-	.	4cc\	-fi-	-gi-	-po-	-ri-	.
2F\	-mae	-ter	-re	-a,	2A/	-mae	-ter	-re	-a	.	2f\	-mae	-ter,	-re	-a,	.	2cc\	-mae	-ter,	-re,	-a,	.
=26	=26	=26	=26	=26	=26	=26	=26	=26	=26	=26	=26	=26	=26	=26	=26	=26	=26	=26	=26	=26	=26	=26
2E\	u-	per-	se-	ae-	2G/	u-	per-	se-	ae-	.	2g\	u-	per-	se-	ae-	.	2cc\	u-	per-	se-	ae-	.
2E\	-trum-	-fun-	-des	-ter-	2c\	-trum-	-fun-	-des	-ter-	.	2g\	-trum-	-fun-	-des	-ter-	.	2een\	-trum-	-fun-	-des	-ter-	.
2E\	-que	-de	be-	-na	2G/	-q(ue)	-de	be-	-na	.	2g\	-q(ue)	-de	be-	-na	.	2cc\	-q(ue)	-de	be-	-na	.
=27	=27	=27	=27	=27	=27	=27	=27	=27	=27	=27	=27-	=27-	=27-	=27-	=27-	=27-	=27	=27	=27	=27	=27	=27
(<1F	jun-	Cae-	-a-	sit	(2A\	jun-	cae-	-a-	sit	.	2c\	jun-	cae-	-a-	sit	.	1ff	jun-	cae-	-a-	sit-	.
.	.	.	.	.	2B\)	.	.	.	.	.	2d\	.	.	.	.	.	.	.	.	.	.	.
2C/)	.	.	.	.	2c\	.	.	.	.	.	2e\	.	.	.	.	.	2ee\	.	.	.	.	.
=28-	=28-	=28-	=28-	=28-	=28-	=28-	=28-	=28-	=28-	=28-	=28	=28	=28	=28	=28	=28	=28-	=28-	=28-	=28-	=28-	=28-
1BBn	.	.	.	.	1f	.	.	.	.	.	1g	.	.	.	.	.	1dd	.	.	.	.	.
2C,</	-xit	-li	-tas	per	2c,<\	-xit	-li	-tas	per	.	2g\	-xit	-li	-tas	per	.	2cc\	-xit	-li	-tas	-per	.
=29	=29	=29	=29	=29	=29-	=29-	=29-	=29-	=29-	=29-	=29	=29	=29	=29	=29	=29	=29	=29	=29	=29	=29	=29
2F\	an-	gra-	im-	sae-	2A/	an-	gra-	im-	sae-	.	(4f\	An-	gra-	im-	sae-	.	1cc	an-	gra-	im-	sae-	.
.	.	.	.	.	.	.	.	.	.	.	4e\)	.	.	.	.	.	.	.	.	.	.	.
2G\	.	.	.	.	2.G/	.	.	.	.	.	2.d\	.	.	.	.	.	.	.	.	.	.	.
2GG/	-gu-	-ti-	-ple-	-cu-	.	.	.	.	.	.	.	.	.	.	.	.	2b\	-gu-	-ti-	-ple-	-cu-	.
.	.	.	.	.	4G/	-gu-	-ti-	-ple-	-cu-	.	4d\	-gu-	-ti-	-ple-	-cu-	.	.	.	.	.	.	.
=30-	=30-	=30-	=30-	=30-	=30-	=30-	=30-	=30-	=30-	=30-	=30-	=30-	=30-	=30-	=30-	=30-	=30-	=30-	=30-	=30-	=30-	=30-
1.Cl;	-lum.	-â.	-ant.	-la.	1.Gl;	-lum.	-a.	-ant.	-la	.	1.el;	-lum.	-â	-ant.	-la	.	1.ccl;	-lum.	-â.	-ant.	-la.	.
==	==	==	==	==	==	==	==	==	==	==	==	==	==	==	==	==	==	==	==	==	==	==
*-	*-	*-	*-	*-	*-	*-	*-	*-	*-	*-	*-	*-	*-	*-	*-	*-	*-	*-	*-	*-	*-	*-
!!!system-decoration: [g1]
!!!RDF**kern: > = above
!!!RDF**kern: < = below
!!!RDF**kern: l = terminal long
!!!RDF**dynam: f = "Forte"
!!!ENC: Andrzej Kubiczek
!!!END: 2021-03-20
!!!ENC: Andrzej Borzym
!!!END: 2021-03-04
